addons/DVs_behavior_tree/icons/force_status.svg

<svg height="31.999998" viewBox="0 0 8.466666 8.4666661" width="31.999998" xmlns="http://www.w3.org/2000/svg"><g fill="#af9dd9"><g transform="matrix(1.5732616 .42155416 -.42155416 1.5732616 -1.080514 -4.02392)"><rect height="2.953692" rx=".166674" transform="matrix(.8660254 .5 -.5 .8660254 0 0)" width=".705497" x="5.430092" y="1.453328"/><path d="m4.0858361 1.5771635-.1590393.2754641-.8372363 1.4501357-.1590393.2754642.5863726.3385424.1590394-.2754641 1.3488111.7787364-.1590392.2754642.5863726.3385424 1.1553149-2.001064-.5863727-.3385425-.1590393.2754642-1.3488112-.7787364.1590393-.2754642z"/></g><path d="m4.5243683 6.4828458v.3147095h-.3048909v.4723226h3.7951172v-.4723226h-.304891v-.3147095z"/></g></svg>

<?xml version="1.0" encoding="UTF-8" standalone="no"?>
<!-- Created with Inkscape (http://www.inkscape.org/) -->

<svg
   width="31.999998"
   height="31.999998"
   viewBox="0 0 8.466666 8.4666661"
   version="1.1"
   id="svg4262"
   inkscape:version="1.2.2 (732a01da63, 2022-12-09)"
   sodipodi:docname="force_status.svg"
   inkscape:export-filename="..\force_status.svg"
   inkscape:export-xdpi="96"
   inkscape:export-ydpi="96"
   xmlns:inkscape="http://www.inkscape.org/namespaces/inkscape"
   xmlns:sodipodi="http://sodipodi.sourceforge.net/DTD/sodipodi-0.dtd"
   xmlns="http://www.w3.org/2000/svg"
   xmlns:svg="http://www.w3.org/2000/svg">
  <sodipodi:namedview
     id="namedview4264"
     pagecolor="#ffffff"
     bordercolor="#000000"
     borderopacity="0.25"
     inkscape:showpageshadow="2"
     inkscape:pageopacity="0.0"
     inkscape:pagecheckerboard="0"
     inkscape:deskcolor="#d1d1d1"
     inkscape:document-units="mm"
     showgrid="false"
     showguides="false"
     inkscape:zoom="19.02887"
     inkscape:cx="23.989863"
     inkscape:cy="17.368346"
     inkscape:window-width="1680"
     inkscape:window-height="988"
     inkscape:window-x="-8"
     inkscape:window-y="-8"
     inkscape:window-maximized="1"
     inkscape:current-layer="layer1" />
  <defs
     id="defs4259" />
  <g
     inkscape:label="Layer 1"
     inkscape:groupmode="layer"
     id="layer1">
    <g
       id="g4446"
       transform="matrix(1.5732616,0.42155416,-0.42155416,1.5732616,-1.080514,-4.0239195)">
      <rect
         style="fill:#af9dd9;stroke:#ffff00;stroke-width:0;stroke-linecap:square"
         id="rect4435"
         width="0.70549685"
         height="2.9536924"
         x="5.4300923"
         y="1.4533275"
         transform="rotate(30)"
         rx="0.16667362"
         ry="0.16667362" />
      <path
         id="rect4437"
         style="fill:#af9dd9;stroke:#ffff00;stroke-width:0;stroke-linecap:square"
         d="M 4.0858361,1.5771635 3.9267968,1.8526276 3.0895605,3.3027633 2.9305212,3.5782275 3.5168938,3.9167699 3.6759332,3.6413058 5.0247443,4.4200422 4.8657051,4.6955064 5.4520777,5.0340488 6.6073926,3.0329848 6.0210199,2.6944423 5.8619806,2.9699065 4.5131694,2.1911701 4.6722087,1.9157059 Z" />
    </g>
    <path
       id="rect4448"
       style="fill:#af9dd9;stroke:#ffff00;stroke-width:0;stroke-linecap:square"
       d="M 4.5243683,6.4828458 V 6.7975553 H 4.2194774 V 7.2698779 H 8.0145946 V 6.7975553 H 7.7097036 V 6.4828458 Z" />
  </g>
</svg>
